packages/tokens/icons/copy/size32Px.svg

<svg viewBox="0 0 32 32" fill="none" xmlns="http://www.w3.org/2000/svg" width="1em" height="1em"><path d="M23 8C23.2761 8 23.5 7.77614 23.5 7.5C23.5 7.22386 23.2761 7 23 7V8ZM19.0858 3.08579L18.7322 3.43934L19.0858 3.08579ZM21.5 25L6.5 25V26L21.5 26V25ZM5 23.5L5 4.5H4L4 23.5H5ZM6.5 3L17.6716 3V2L6.5 2V3ZM23 8.32843L23 23.5H24L24 8.32843H23ZM18 2.98077V5.5H19V2.98077H18ZM20.5 8H23V7H20.5V8ZM18.7322 3.43934L22.5607 7.26777L23.2678 6.56066L19.4393 2.73223L18.7322 3.43934ZM18 5.5C18 6.88071 19.1193 8 20.5 8V7C19.6716 7 19 6.32843 19 5.5H18ZM24 8.32843C24 7.66539 23.7366 7.0295 23.2678 6.56066L22.5607 7.26777C22.842 7.54907 23 7.9306 23 8.32843H24ZM17.6716 3C18.0694 3 18.4509 3.15804 18.7322 3.43934L19.4393 2.73223C18.9705 2.26339 18.3346 2 17.6716 2V3ZM6.5 25C5.67157 25 5 24.3284 5 23.5H4C4 24.8807 5.11929 26 6.5 26V25ZM21.5 26C22.8807 26 24 24.8807 24 23.5H23C23 24.3284 22.3284 25 21.5 25V26ZM5 4.5C5 3.67157 5.67157 3 6.5 3V2C5.11929 2 4 3.11929 4 4.5H5Z" fill="currentColor"/><path d="M9 29.5L25.5 29.5C26.6046 29.5 27.5 28.6046 27.5 27.5L27.5 8.5" stroke="currentColor" stroke-linecap="round"/><line x1="7.5" y1="8.5" x2="15.5" y2="8.5" stroke="currentColor" stroke-linecap="round"/><path d="M7.5 12.5L20.5 12.5" stroke="currentColor" stroke-linecap="round"/><path d="M7.5 16.5L20.5 16.5" stroke="currentColor" stroke-linecap="round"/><path d="M7.5 20.5L20.5 20.5" stroke="currentColor" stroke-linecap="round"/></svg>

<svg xmlns="http://www.w3.org/2000/svg" fill="none" viewBox="0 0 32 32" width="1em" height="1em"><path fill="currentColor" d="M23 8a.5.5 0 0 0 0-1v1Zm-3.914-4.914-.354.353.354-.353ZM21.5 25h-15v1h15v-1ZM5 23.5v-19H4v19h1ZM6.5 3h11.172V2H6.5v1ZM23 8.328V23.5h1V8.328h-1Zm-5-5.347V5.5h1V2.98h-1ZM20.5 8H23V7h-2.5v1Zm-1.768-4.56 3.829 3.828.707-.707-3.829-3.829-.707.707ZM18 5.5A2.5 2.5 0 0 0 20.5 8V7A1.5 1.5 0 0 1 19 5.5h-1Zm6 2.828a2.5 2.5 0 0 0-.732-1.767l-.707.707A1.5 1.5 0 0 1 23 8.328h1ZM17.672 3a1.5 1.5 0 0 1 1.06.44l.707-.708A2.5 2.5 0 0 0 17.672 2v1ZM6.5 25A1.5 1.5 0 0 1 5 23.5H4A2.5 2.5 0 0 0 6.5 26v-1Zm15 1a2.5 2.5 0 0 0 2.5-2.5h-1a1.5 1.5 0 0 1-1.5 1.5v1ZM5 4.5A1.5 1.5 0 0 1 6.5 3V2A2.5 2.5 0 0 0 4 4.5h1Z"/><path stroke="currentColor" stroke-linecap="round" d="M9 29.5h16.5a2 2 0 0 0 2-2v-19m-20 0h8m-8 4h13m-13 4h13m-13 4h13"/></svg>
